X:13014
T:Minstrel Boy, The
R:Air
C:Trad.
O:Ireland
M:2/4
L:1/8
Q:1/4=100
K:G
D|"G"G3"D7"A|"G"cB AG|B2 "D"d2|"Em"g2 "D"fg|"C"e2 "G"d2|"G"Bc dB|"D7"A4|"G"G2 D2|
"G"G3"D7"A|"G"cB AG|B2 "D"d2|"Em"g2 "D"fg|"C"e2 "G"d2|Bc dB|"D7"A4|"G"G2 d2|
"Em"g2 "B7"f2|"Em"e2 "A7"fg|"D"f2 "A7"e2|"D"d3d|"Em"e3B|"Bm"B2 "Em"e2|"A7"e2 "D7"f2|"G"g3g|
"G"G3"D7"A|"G"cB AG|B2 "D"d2|"Em"g2 "D"fg|"C"e2 "G"d2|Bc dB|"D7"A4|"G"G4||

